Costumes/O-story-2.svg

<?xml version="1.0" encoding="utf-8"?>
<!-- Generator: Adobe Illustrator 18.0.0, SVG Export Plug-In . SVG Version: 6.00 Build 0)  -->
<!DOCTYPE svg PUBLIC "-//W3C//DTD SVG 1.1//EN" "http://www.w3.org/Graphics/SVG/1.1/DTD/svg11.dtd">
<svg version="1.1" id="Layer_2" xmlns="http://www.w3.org/2000/svg" xmlns:xlink="http://www.w3.org/1999/xlink" x="0px" y="0px"
	 viewBox="0 0 49.9 50.5" enable-background="new 0 0 49.9 50.5" xml:space="preserve">
<g>
	<path fill="#F7941E" d="M45.7,9.9c-0.9-1.7-2.2-3-3.6-4.1c-2.8-2.3-5.8-4.5-9.6-5.1C30.6,0.4,28.8,0,26.9,0c-1.5,0-3.1,0.3-4.6,0.6
		c-1.5,0.3-3.1,0.6-4.5,1.3C13.5,4,9.4,6.6,6.2,10.3C2.4,14.7-0.2,19.5,0,25.5c0.1,1.7,0.2,3.5,0.4,5.2C0.5,32.9,1,35.1,2,37
		c0.5,0.9,0.9,1.9,1.4,2.7c1.2,1.6,2.2,3.5,3.8,4.7c2.1,1.8,4.5,3.5,7.2,4.5c5.3,2.1,10.5,1.8,15.8-0.2c3.4-1.3,6.6-3,9.6-5.2
		c2.3-1.7,4.3-3.8,5.8-6.3c1.4-2.2,2.6-4.5,3.2-7.1c0.5-2.1,1-4.1,1.2-6.2C50.2,18.8,48,14.3,45.7,9.9z M48.1,29.9
		c-0.2,0.5-0.4,1-0.5,1.6c-1.4,4.3-3.8,8-7.4,10.9c-1.6,1.3-3.3,2.5-5.1,3.4c-2.5,1.2-5.2,1.8-8,1.4c-5.9-0.6-10.9-3.1-14.7-7.6
		c-1.7-2-3.2-4.2-4.5-6.5c-0.8-1.4-1.2-3.2-1.4-4.8C5.7,24,6.1,19.8,7.3,15.7c0.7-2.2,1.8-4.2,3.5-5.9c1.3-1.3,2.4-2.7,3.7-3.9
		c3.3-3,7.2-4.8,11.8-5.1c4-0.2,7.8,0.3,11.2,2.4c2.5,1.5,4.9,3.2,6.7,5.6c0.9,1.3,1.6,2.8,2.4,4.3c1.9,3.5,2.7,7,2.7,11.8
		C49.2,25.9,48.8,27.9,48.1,29.9z"/>
	<path fill="#FFFFFF" d="M46.5,13c-0.8-1.4-1.4-3-2.4-4.3c-1.7-2.4-4.2-4.1-6.7-5.6C34.1,1,30.2,0.5,26.3,0.7
		C21.7,1,17.8,2.8,14.5,5.8c-1.3,1.2-2.4,2.6-3.7,3.9c-1.7,1.7-2.8,3.7-3.5,5.9C6.1,19.8,5.7,24,6.4,28.2c0.3,1.7,0.6,3.4,1.4,4.8
		c1.3,2.3,2.8,4.5,4.5,6.5c3.8,4.5,8.8,7,14.7,7.6c2.8,0.3,5.5-0.2,8-1.4c1.8-0.9,3.5-2.1,5.1-3.4c3.6-2.9,5.9-6.6,7.4-10.9
		c0.2-0.5,0.4-1,0.5-1.6c0.7-1.9,1.1-3.9,1.2-5.1C49.3,20,48.4,16.5,46.5,13z M43.8,11.7c1.2,2.3,1.9,4.7,2.1,7.3
		c0,0.4,0.1,0.8,0.1,1.2c0,0.2-0.2,0.4-0.3,0.7c-0.1,0-0.2-0.1-0.3-0.1c-0.2-4-1.2-7.7-3.8-11C42.3,10,43.4,11,43.8,11.7z
		 M12.8,10.4c0.1-0.2,0.3-0.3,0.4-0.4c0.1,0,0.2,0.1,0.2,0.2c-1.7,3.5-3.5,7-4,10.9c-0.1,0-0.2,0-0.3,0.1c-0.1-0.2-0.4-0.5-0.3-0.7
		C9.5,16.8,10.7,13.4,12.8,10.4z M8.8,22.7c0.3,0.3,0.6,0.5,0.8,0.8c0.1,0.1-0.3,0.4-0.7,0.9c-0.3-0.5-0.6-0.8-0.7-1.1
		C8.2,23.1,8.6,22.9,8.8,22.7z M13.4,38.1c-0.6-0.7-1.2-1.4-1.7-2.1c-1.1-2-2.1-4.1-2.7-6.3c-0.2-1-0.3-2-0.4-3.1
		c0-0.2,0.2-0.4,0.5-0.6c0.2,4.5,2.3,8.2,4.5,11.9C13.6,38,13.5,38.1,13.4,38.1z M41.2,34.4c-1,3.1-2.6,5.9-5.2,8.1
		c-0.3,0.3-0.7,0.6-1,0.9c-1.8,1.8-4.1,2.3-6.6,2.4c-2.8,0.2-5.4-0.5-7.7-2.1c-0.5-0.3-0.9-0.8-1.3-1.3c-1.4-1.7-3.1-3.3-4.1-5.2
		c-1.2-2.3-2.1-4.8-2.8-7.3c-0.4-1.5-0.2-3.1-0.3-4.3c0.1-3.3,0.2-6.4,1.1-9.3c1.1-3.3,2.2-6.6,4.5-9.3c2.1-2.6,4.8-4.5,8.2-5
		c2.2-0.3,4.4-0.4,6.3,1c1,0.7,2.1,1.2,3.1,1.9c2.9,1.9,4.5,4.8,5.8,7.8c1.5,3.5,1.9,7.1,1.8,10.8C42.9,27.2,42.3,30.9,41.2,34.4z
		 M45.9,29.9c-0.5,1.5-1,3-1.7,4.4c-0.5,1-1.1,1.9-1.6,2.9c-0.1,0.2-0.4,0.3-0.6,0.5c-0.1,0-0.1-0.1-0.2-0.1
		c1.9-3.7,3.6-7.4,4.3-11.6c0.1,0.3,0.4,0.6,0.4,0.9C46.4,27.9,46.2,28.9,45.9,29.9z M46.7,24c-0.3,0.2-0.6,0.5-0.8,0.4
		c-0.3-0.1-0.6-0.5-0.7-0.7c0-0.2,0.4-0.6,0.7-0.6c0.3,0,0.5,0.4,0.8,0.6C46.7,23.8,46.7,23.9,46.7,24z"/>
	<path fill="#F7941E" d="M41.1,12.7c-1.3-3.1-2.9-5.9-5.8-7.8c-1-0.7-2.1-1.2-3.1-1.9c-2-1.4-4.2-1.3-6.3-1c-3.4,0.5-6,2.4-8.2,5
		c-2.3,2.7-3.4,6-4.5,9.3c-1,2.9-1,5.9-1.1,9.3c0.1,1.2-0.1,2.9,0.3,4.3c0.7,2.5,1.6,5.1,2.8,7.3c1,1.9,2.7,3.5,4.1,5.2
		c0.4,0.5,0.8,1,1.3,1.3c2.3,1.6,4.9,2.2,7.7,2.1c2.5-0.1,4.7-0.6,6.6-2.4c0.3-0.3,0.7-0.6,1-0.9c2.6-2.2,4.2-4.9,5.2-8.1
		c1.1-3.5,1.7-7.1,1.7-10.9C43,19.8,42.6,16.2,41.1,12.7z M35,35.5c-1,2.9-2.5,5.6-4.7,7.8c-1.6,1.6-3.5,1.9-5.5,1.4
		c-2.7-0.6-4.4-2.4-6.2-4.3c-2.8-3.1-4.3-6.7-5.3-10.6c-0.7-2.7-0.6-5.4-0.4-8.2c0.3-4.1,1.7-8,3.6-11.6c0.7-1.3,1.6-2.6,2.8-3.5
		c1.8-1.3,3.9-1.9,6.2-1.8c3.5,0.2,6,2.1,7.6,5.1c1,1.9,1.6,4,2.1,6.1c0.8,3.3,1.4,6.7,1.1,10.1C36.6,29.3,36,32.4,35,35.5z"/>
	<path fill="#F7941E" d="M13.7,37.9c-0.1,0.1-0.2,0.1-0.3,0.2c-0.6-0.7-1.2-1.4-1.7-2.1c-1.1-2-2.1-4.1-2.7-6.3
		c-0.2-1-0.3-2-0.4-3.1c0-0.2,0.2-0.4,0.5-0.6C9.3,30.6,11.5,34.3,13.7,37.9z"/>
	<path fill="#F7941E" d="M46.5,26.9c-0.2,1-0.3,2.1-0.7,3c-0.5,1.5-1,3-1.7,4.4c-0.5,1-1.1,1.9-1.6,2.9c-0.1,0.2-0.4,0.3-0.6,0.5
		c-0.1,0-0.1-0.1-0.2-0.1c1.9-3.7,3.6-7.4,4.3-11.6C46.3,26.3,46.6,26.6,46.5,26.9z"/>
	<path fill="#F7941E" d="M13.4,10.1c-1.7,3.5-3.5,7-4,10.9c-0.1,0-0.2,0-0.3,0.1c-0.1-0.2-0.4-0.5-0.3-0.7c0.7-3.6,1.8-7,3.9-10
		c0.1-0.2,0.3-0.3,0.4-0.4C13.3,10,13.4,10.1,13.4,10.1z"/>
	<path fill="#F7941E" d="M46.1,20.3c0,0.2-0.2,0.4-0.3,0.7c-0.1,0-0.2-0.1-0.3-0.1c-0.2-4-1.2-7.7-3.8-11c0.7,0.1,1.8,1.1,2.2,1.9
		c1.2,2.3,1.9,4.7,2.1,7.3C46,19.4,46.1,19.9,46.1,20.3z"/>
	<path fill="#F7941E" d="M46.7,23.7c0,0.1,0,0.2,0,0.3c-0.3,0.2-0.6,0.5-0.8,0.4c-0.3-0.1-0.6-0.5-0.7-0.7c0-0.2,0.4-0.6,0.7-0.6
		C46.1,23.1,46.4,23.5,46.7,23.7z"/>
	<path fill="#F7941E" d="M9.6,23.5c0.1,0.1-0.3,0.4-0.7,0.9c-0.3-0.5-0.6-0.8-0.7-1.1c0-0.2,0.4-0.4,0.6-0.6
		C9.1,23,9.4,23.2,9.6,23.5z"/>
</g>
</svg>

<?xml version="1.0" encoding="UTF-8" standalone="no"?>
<!-- Generator: Adobe Illustrator 18.0.0, SVG Export Plug-In . SVG Version: 6.00 Build 0)  -->

<svg
   version="1.1"
   id="Layer_2"
   x="0px"
   y="0px"
   viewBox="0 0 50.023459 50.343197"
   enable-background="new 0 0 49.9 50.5"
   xml:space="preserve"
   sodipodi:docname="O-story-2.svg"
   width="50.02346"
   height="50.343197"
   xmlns:inkscape="http://www.inkscape.org/namespaces/inkscape"
   xmlns:sodipodi="http://sodipodi.sourceforge.net/DTD/sodipodi-0.dtd"
   xmlns="http://www.w3.org/2000/svg"
   xmlns:svg="http://www.w3.org/2000/svg"><defs
   id="defs25" /><sodipodi:namedview
   id="namedview23"
   pagecolor="#ffffff"
   bordercolor="#000000"
   borderopacity="0.25"
   inkscape:showpageshadow="2"
   inkscape:pageopacity="0.0"
   inkscape:pagecheckerboard="0"
   inkscape:deskcolor="#d1d1d1" />
<g
   id="g20"
   transform="translate(0.01078831)">
	<path
   fill="#f7941e"
   d="M 45.7,9.9 C 44.8,8.2 43.5,6.9 42.1,5.8 39.3,3.5 36.3,1.3 32.5,0.7 30.6,0.4 28.8,0 26.9,0 25.4,0 23.8,0.3 22.3,0.6 20.8,0.9 19.2,1.2 17.8,1.9 13.5,4 9.4,6.6 6.2,10.3 2.4,14.7 -0.2,19.5 0,25.5 0.1,27.2 0.2,29 0.4,30.7 0.5,32.9 1,35.1 2,37 c 0.5,0.9 0.9,1.9 1.4,2.7 1.2,1.6 2.2,3.5 3.8,4.7 2.1,1.8 4.5,3.5 7.2,4.5 5.3,2.1 10.5,1.8 15.8,-0.2 3.4,-1.3 6.6,-3 9.6,-5.2 2.3,-1.7 4.3,-3.8 5.8,-6.3 1.4,-2.2 2.6,-4.5 3.2,-7.1 0.5,-2.1 1,-4.1 1.2,-6.2 0.2,-5.1 -2,-9.6 -4.3,-14 z m 2.4,20 c -0.2,0.5 -0.4,1 -0.5,1.6 -1.4,4.3 -3.8,8 -7.4,10.9 -1.6,1.3 -3.3,2.5 -5.1,3.4 -2.5,1.2 -5.2,1.8 -8,1.4 C 21.2,46.6 16.2,44.1 12.4,39.6 10.7,37.6 9.2,35.4 7.9,33.1 7.1,31.7 6.7,29.9 6.5,28.3 5.7,24 6.1,19.8 7.3,15.7 8,13.5 9.1,11.5 10.8,9.8 c 1.3,-1.3 2.4,-2.7 3.7,-3.9 3.3,-3 7.2,-4.8 11.8,-5.1 4,-0.2 7.8,0.3 11.2,2.4 2.5,1.5 4.9,3.2 6.7,5.6 0.9,1.3 1.6,2.8 2.4,4.3 1.9,3.5 2.7,7 2.7,11.8 -0.1,1 -0.5,3 -1.2,5 z"
   id="path2" />
	<path
   fill="#ffffff"
   d="M 46.5,13 C 45.7,11.6 45.1,10 44.1,8.7 42.4,6.3 39.9,4.6 37.4,3.1 34.1,1 30.2,0.5 26.3,0.7 21.7,1 17.8,2.8 14.5,5.8 13.2,7 12.1,8.4 10.8,9.7 9.1,11.4 8,13.4 7.3,15.6 6.1,19.8 5.7,24 6.4,28.2 6.7,29.9 7,31.6 7.8,33 c 1.3,2.3 2.8,4.5 4.5,6.5 3.8,4.5 8.8,7 14.7,7.6 2.8,0.3 5.5,-0.2 8,-1.4 1.8,-0.9 3.5,-2.1 5.1,-3.4 3.6,-2.9 5.9,-6.6 7.4,-10.9 0.2,-0.5 0.4,-1 0.5,-1.6 0.7,-1.9 1.1,-3.9 1.2,-5.1 C 49.3,20 48.4,16.5 46.5,13 Z m -2.7,-1.3 c 1.2,2.3 1.9,4.7 2.1,7.3 0,0.4 0.1,0.8 0.1,1.2 0,0.2 -0.2,0.4 -0.3,0.7 -0.1,0 -0.2,-0.1 -0.3,-0.1 -0.2,-4 -1.2,-7.7 -3.8,-11 0.7,0.2 1.8,1.2 2.2,1.9 z m -31,-1.3 c 0.1,-0.2 0.3,-0.3 0.4,-0.4 0.1,0 0.2,0.1 0.2,0.2 -1.7,3.5 -3.5,7 -4,10.9 -0.1,0 -0.2,0 -0.3,0.1 C 9,21 8.7,20.7 8.8,20.5 c 0.7,-3.7 1.9,-7.1 4,-10.1 z m -4,12.3 c 0.3,0.3 0.6,0.5 0.8,0.8 0.1,0.1 -0.3,0.4 -0.7,0.9 -0.3,-0.5 -0.6,-0.8 -0.7,-1.1 0,-0.2 0.4,-0.4 0.6,-0.6 z m 4.6,15.4 C 12.8,37.4 12.2,36.7 11.7,36 10.6,34 9.6,31.9 9,29.7 c -0.2,-1 -0.3,-2 -0.4,-3.1 0,-0.2 0.2,-0.4 0.5,-0.6 0.2,4.5 2.3,8.2 4.5,11.9 0,0.1 -0.1,0.2 -0.2,0.2 z m 27.8,-3.7 c -1,3.1 -2.6,5.9 -5.2,8.1 -0.3,0.3 -0.7,0.6 -1,0.9 -1.8,1.8 -4.1,2.3 -6.6,2.4 C 25.6,46 23,45.3 20.7,43.7 20.2,43.4 19.8,42.9 19.4,42.4 18,40.7 16.3,39.1 15.3,37.2 14.1,34.9 13.2,32.4 12.5,29.9 12.1,28.4 12.3,26.8 12.2,25.6 12.3,22.3 12.4,19.2 13.3,16.3 14.4,13 15.5,9.7 17.8,7 19.9,4.4 22.6,2.5 26,2 c 2.2,-0.3 4.4,-0.4 6.3,1 1,0.7 2.1,1.2 3.1,1.9 2.9,1.9 4.5,4.8 5.8,7.8 1.5,3.5 1.9,7.1 1.8,10.8 -0.1,3.7 -0.7,7.4 -1.8,10.9 z m 4.7,-4.5 c -0.5,1.5 -1,3 -1.7,4.4 -0.5,1 -1.1,1.9 -1.6,2.9 -0.1,0.2 -0.4,0.3 -0.6,0.5 -0.1,0 -0.1,-0.1 -0.2,-0.1 1.9,-3.7 3.6,-7.4 4.3,-11.6 0.1,0.3 0.4,0.6 0.4,0.9 -0.1,1 -0.3,2 -0.6,3 z M 46.7,24 c -0.3,0.2 -0.6,0.5 -0.8,0.4 -0.3,-0.1 -0.6,-0.5 -0.7,-0.7 0,-0.2 0.4,-0.6 0.7,-0.6 0.3,0 0.5,0.4 0.8,0.6 0,0.1 0,0.2 0,0.3 z"
   id="path4" />
	<path
   fill="#f7941e"
   d="M 41.1,12.7 C 39.8,9.6 38.2,6.8 35.3,4.9 34.3,4.2 33.2,3.7 32.2,3 30.2,1.6 28,1.7 25.9,2 c -3.4,0.5 -6,2.4 -8.2,5 -2.3,2.7 -3.4,6 -4.5,9.3 -1,2.9 -1,5.9 -1.1,9.3 0.1,1.2 -0.1,2.9 0.3,4.3 0.7,2.5 1.6,5.1 2.8,7.3 1,1.9 2.7,3.5 4.1,5.2 0.4,0.5 0.8,1 1.3,1.3 2.3,1.6 4.9,2.2 7.7,2.1 2.5,-0.1 4.7,-0.6 6.6,-2.4 0.3,-0.3 0.7,-0.6 1,-0.9 2.6,-2.2 4.2,-4.9 5.2,-8.1 1.1,-3.5 1.7,-7.1 1.7,-10.9 C 43,19.8 42.6,16.2 41.1,12.7 Z M 35,35.5 c -1,2.9 -2.5,5.6 -4.7,7.8 -1.6,1.6 -3.5,1.9 -5.5,1.4 -2.7,-0.6 -4.4,-2.4 -6.2,-4.3 -2.8,-3.1 -4.3,-6.7 -5.3,-10.6 -0.7,-2.7 -0.6,-5.4 -0.4,-8.2 0.3,-4.1 1.7,-8 3.6,-11.6 0.7,-1.3 1.6,-2.6 2.8,-3.5 1.8,-1.3 3.9,-1.9 6.2,-1.8 3.5,0.2 6,2.1 7.6,5.1 1,1.9 1.6,4 2.1,6.1 0.8,3.3 1.4,6.7 1.1,10.1 0.3,3.3 -0.3,6.4 -1.3,9.5 z"
   id="path6" />
	<path
   fill="#f7941e"
   d="M 13.7,37.9 C 13.6,38 13.5,38 13.4,38.1 12.8,37.4 12.2,36.7 11.7,36 10.6,34 9.6,31.9 9,29.7 c -0.2,-1 -0.3,-2 -0.4,-3.1 0,-0.2 0.2,-0.4 0.5,-0.6 0.2,4.6 2.4,8.3 4.6,11.9 z"
   id="path8" />
	<path
   fill="#f7941e"
   d="m 46.5,26.9 c -0.2,1 -0.3,2.1 -0.7,3 -0.5,1.5 -1,3 -1.7,4.4 -0.5,1 -1.1,1.9 -1.6,2.9 -0.1,0.2 -0.4,0.3 -0.6,0.5 -0.1,0 -0.1,-0.1 -0.2,-0.1 1.9,-3.7 3.6,-7.4 4.3,-11.6 0.3,0.3 0.6,0.6 0.5,0.9 z"
   id="path10" />
	<path
   fill="#f7941e"
   d="M 13.4,10.1 C 11.7,13.6 9.9,17.1 9.4,21 9.3,21 9.2,21 9.1,21.1 9,20.9 8.7,20.6 8.8,20.4 c 0.7,-3.6 1.8,-7 3.9,-10 0.1,-0.2 0.3,-0.3 0.4,-0.4 0.2,0 0.3,0.1 0.3,0.1 z"
   id="path12" />
	<path
   fill="#f7941e"
   d="m 46.1,20.3 c 0,0.2 -0.2,0.4 -0.3,0.7 -0.1,0 -0.2,-0.1 -0.3,-0.1 -0.2,-4 -1.2,-7.7 -3.8,-11 0.7,0.1 1.8,1.1 2.2,1.9 1.2,2.3 1.9,4.7 2.1,7.3 0,0.3 0.1,0.8 0.1,1.2 z"
   id="path14" />
	<path
   fill="#f7941e"
   d="m 46.7,23.7 c 0,0.1 0,0.2 0,0.3 -0.3,0.2 -0.6,0.5 -0.8,0.4 -0.3,-0.1 -0.6,-0.5 -0.7,-0.7 0,-0.2 0.4,-0.6 0.7,-0.6 0.2,0 0.5,0.4 0.8,0.6 z"
   id="path16" />
	<path
   fill="#f7941e"
   d="m 9.6,23.5 c 0.1,0.1 -0.3,0.4 -0.7,0.9 -0.3,-0.5 -0.6,-0.8 -0.7,-1.1 0,-0.2 0.4,-0.4 0.6,-0.6 0.3,0.3 0.6,0.5 0.8,0.8 z"
   id="path18" />
</g>
</svg>
